**kern
*staff1
!!pagebreak:original
*I"P1
=1-
*clefG2
*k[b-e-a-]
*M2/4
4gg\
4cc\
=2
8dd\L
8ee-\J
4cc\
=3
4gg\
4cc\
=4
8dd\L
8ee-\J
4cc\
=5
8.ff\L
16gg\k
8ff\
8ee-\J
=6
8dd\L
8cc\J
4b-\
=7
8.ff\L
16gg\k
8ff\
8ee-\J
=8
8dd\L
8cc\J
4b-\
*-
